X:208
T: LUSTIG ISTS SOLDATENLEBEN
N: E1347
O: Europa, Mitteleuropa, Deutschland, Hessen, Nassau
R: Staende -, Soldaten -, Kriegs - Lied
M: 4/4
L: 1/8
K: G
 | D3GG2G2 | G2FGA2D2
B2B2B2B2 | B2d2c2B2
A3GF2G2 | A2B2A2
D2 | c2e2d2B2 | A2ABG2z2
A2A2B2G2 | c2e2d2B2 | A2ABG4

